icons/plexis/48/filezilla.svg

<svg viewBox="0 0 48 48" xmlns="http://www.w3.org/2000/svg" xmlns:xlink="http://www.w3.org/1999/xlink">
  <linearGradient id="a" gradientTransform="matrix(0 -1 1 0 -.0000015 47.999998)" gradientUnits="userSpaceOnUse" x1="1" x2="47">
    <stop offset="0" stop-color="#af0505"/>
    <stop offset="1" stop-color="#c20606"/>
  </linearGradient>
  <path d="m47 24c0 22.703-.297 23-23 23-22.703 0-23-.297-23-23 0-22.703.297-23 23-23 22.703 0 23 .297 23 23z" fill="url(#a)"/>
  <path d="m18 13l-5 21h4.1l2.15-9h10.75l-10.071 8.962 2.633 3.038 1.348-.703c2.551-1.309 3.621-.543 5.555-.008 1.883.52 3.656 1.078 7.328-1.035l-.73-3.734c-4 2.848-5.273.309-8.129.203l8.066-6.723 1-4h-16.8l.98-4h10.82l1-4" opacity=".1"/>
  <path d="m17 12l-5 21h4.1l2.15-9h10.75l-10.071 8.962 2.633 3.038 1.348-.703c2.551-1.309 3.621-.543 5.555-.008 1.883.52 3.656 1.078 7.328-1.035l-.73-3.734c-4 2.848-5.273.309-8.129.203l8.066-6.723 1-4h-16.8l.98-4h10.82l1-4" fill="#f9f9f9"/>
</svg>

<svg xmlns="http://www.w3.org/2000/svg" viewBox="0 0 48 48">
 <defs>
  <linearGradient id="linearGradient3764" x1="1" x2="47" gradientUnits="userSpaceOnUse" gradientTransform="matrix(0,-1,1,0,-1.5e-6,47.999998)">
   <stop style="stop-color:#af0505;stop-opacity:1"/>
   <stop offset="1" style="stop-color:#c20606;stop-opacity:1"/>
  </linearGradient>
 </defs>
 <g>
  
  
  
 </g>
 <g>
  <path d="m 47,24 C 47,46.703 46.703,47 24,47 1.297,47 1,46.703 1,24 1,1.297 1.297,1 24,1 46.703,1 47,1.297 47,24 z" style="fill:url(#linearGradient3764);fill-opacity:1"/>
 </g>
 <g>
  <g>
   <g transform="translate(1,1)">
    <g style="opacity:0.1">
     <!-- color: #bb0000 -->
    </g>
   </g>
  </g>
 </g>
 <g>
  <g>
   <!-- color: #bb0000 -->
   <g>
    <path d="m 18,13 -5,21 4.1,0 2.15,-9 L 30,25 19.929,33.962 22.562,37 23.91,36.297 c 2.551,-1.309 3.621,-0.543 5.555,-0.008 1.883,0.52 3.656,1.078 7.328,-1.035 l -0.73,-3.734 c -4,2.848 -5.273,0.309 -8.129,0.203 L 36,25 37,21 20.2,21 21.18,17 32,17 33,13" style="fill:#000;opacity:0.1;fill-opacity:1;stroke:none;fill-rule:nonzero"/>
    <path d="m 17,12 -5,21 4.1,0 2.15,-9 L 29,24 18.929,32.962 21.562,36 22.91,35.297 c 2.551,-1.309 3.621,-0.543 5.555,-0.008 1.883,0.52 3.656,1.078 7.328,-1.035 l -0.73,-3.734 c -4,2.848 -5.273,0.309 -8.129,0.203 L 35,24 36,20 19.2,20 20.18,16 31,16 32,12" style="fill:#f9f9f9;fill-opacity:1;stroke:none;fill-rule:nonzero"/>
   </g>
  </g>
 </g>
 <g>
  
 </g>
</svg>
